mockup/templates/main/build/images/GROHE StarLight.svg

<svg xmlns="http://www.w3.org/2000/svg" width="48" height="48" viewBox="0 0 48 48">
  <g fill="none" fill-rule="evenodd">
    <rect width="48" height="48" fill="#132D52" rx="8"/>
    <path fill="#FEFEFE" d="M32.33584 12.5504L39.13584 4.6016 31.71184 11.9648 30.32464 4 30.86544 12.088 22.90384 7.944 29.99664 12.5424C30.61584 12.608 31.03664 12.6544 31.03664 12.6544L31.30384 12.6864 32.45424 13.4064 38.52304 13.48 32.33584 12.5504zM16.94448 17.12544L23.67568 18.51104 23.67568 18.49344 24.05008 18.57504 24.05008 18.57984 24.06288 18.57824 24.07728 18.57984 24.07728 18.57504 24.45008 18.49344 24.45008 18.51104 31.18128 17.12544 32.78608 15.03104 30.86448 13.83104C30.86448 13.83104 27.22128 13.41824 24.07728 13.33344L24.07728 13.33184 24.06288 13.33344 24.05008 13.33184 24.05008 13.33344C20.90448 13.41824 17.26128 13.83104 17.26128 13.83104L15.33968 15.03104 16.94448 17.12544z"/>
    <polygon fill="#FEFEFE" points="32.481 22.294 26.956 36.805 37.073 20.267"/>
    <polygon fill="#FEFEFE" points="30.966 18.532 24.723 19.815 24.723 22.589 31.226 21.271"/>
    <polygon fill="#FEFEFE" points="24.723 38.922 30.903 22.679 24.723 23.949"/>
    <polygon fill="#FEFEFE" points="32.524 20.838 37.127 18.792 33.803 15.899 32.247 17.928"/>
    <polygon fill="#FEFEFE" points="15.602 20.838 15.878 17.928 14.323 15.899 11 18.792"/>
    <polygon fill="#FEFEFE" points="23.41 19.818 17.16 18.531 16.9 21.269 23.41 22.59"/>
    <polygon fill="#FEFEFE" points="23.41 23.95 17.223 22.678 23.41 38.941"/>
    <polygon fill="#FEFEFE" points="15.645 22.294 11.053 20.267 21.17 36.805"/>
  </g>
</svg>

<svg xmlns="http://www.w3.org/2000/svg" width="48" height="48"><g fill="none" fill-rule="evenodd"><rect width="48" height="48" fill="#132D52" rx="8"/><path fill="#FEFEFE" d="M32.336 12.55l6.8-7.948-7.424 7.363L30.325 4l.54 8.088-7.961-4.144 7.093 4.598 1.04.112.267.032 1.15.72 6.069.074-6.187-.93zm-15.392 4.575l6.732 1.386v-.018l.374.082v.005l.013-.002.014.002v-.005l.373-.082v.018l6.731-1.386 1.605-2.094-1.922-1.2s-3.643-.413-6.787-.498v-.001l-.014.001-.013-.001v.001c-3.146.085-6.789.498-6.789.498l-1.921 1.2 1.604 2.094zm15.537 5.169l-5.525 14.511 10.117-16.538zm-1.515-3.762l-6.243 1.283v2.774l6.503-1.318zm-6.243 20.39l6.18-16.243-6.18 1.27zm7.801-18.084l4.603-2.046-3.324-2.893-1.556 2.029zm-16.922 0l.276-2.91-1.555-2.029L11 18.792zm7.808-1.02l-6.25-1.287-.26 2.738 6.51 1.321zm0 4.132l-6.187-1.272 6.187 16.263zm-7.765-1.656l-4.592-2.027L21.17 36.805z"/></g></svg>
